X:1
T:Song of the Books
L:1/8
Q:1/4=80
M:4/4
K:D
B{^c}B | [M:4/4] "B,4in"E2   EF "D4out"G3    A | B<e "B4out"e4 ef      | "B4out"e2{f} ed "G3in"B3   A    | "Din" B>c  d6          |
         e3      "B,4in"E    E3 E/F/    | "D4out"G3  F  G/A/ "E5in"B3 | "D5out"A2    F  "B,4in"E3   "A,4out"D2   | "E,8in"E/E/ E6 B       :|
         "B,in"e2      e/f/ "c3out"e3 de/f/   | "d4in"g3  f  "Gin"e>d  B2 | .AB/  "B,5out"B4 z3/2 B/c/ | 
        "A,in"d3   c  "Din"d3 c/d/  |  "E8in"e4 d "G3out"B2 A | "D4in"G2 .AB/ "B,5out"B3 B/B |
        "B,4in"E2   EF "D4out"G3    A | B<e "B4out"e4 ef      | "B4out"e2{f} ed "G3in"B3   A    | "Din" B>c  d6          |
         e3      "B,4in"E    E3 E/F/    | "D4out"G3  F  G/A/ "E5in"B3 | "D5out"A2    F  "B,4in"E3   "A,4out"D2   | "E,8in"E/E/ E6 B ||    